!!!COM: Palestrina, Giovanni Perluigi da
!!!OPR: Missa Nigra sum
!!!OTL: Agnus I
**kern	**kern	**kern	**kern	**kern
*Ibass	*Itenor	*Itenor	*Icalto	*Icant
!Bassus	!Tenor 2	!Tenor 1	!Altus	!Cantus
*clefF4	*clefGv2	*clefGv2	*clefG2	*clefG2
*k[b-]	*k[b-]	*k[b-]	*k[b-]	*k[b-]
*D:aeo	*D:aeo	*D:aeo	*D:aeo	*D:aeo
*M4/2	*M4/2	*M4/2	*M4/2	*M4/2
=1	=1	=1	=1	=1
0A	0r	0r	0r	0r
=2	=2	=2	=2	=2
1A	0r	1r	0r	0r
[1G	.	[1d	.	.
=3	=3	=3	=3	=3
2G]	0r	1d]	0r	0r
2D	.	.	.	.
2F	.	1d	.	.
2G	.	.	.	.
=4	=4	=4	=4	=4
2.A	0r	1.c	0a	0r
4G	.	.	.	.
[1F	.	.	.	.
.	.	2A	.	.
=5	=5	=5	=5	=5
1F]	0r	2c	1a	0r
.	.	2d	.	.
2C	.	2.e	[1g	.
[2c	.	.	.	.
.	.	4d	.	.
=6	=6	=6	=6	=6
2c]	0r	2e	2g]	1r
2.B-	.	4f	2d	.
.	.	4e	.	.
.	.	4d	2f	[1dd
4A	.	4c	.	.
[2G	.	2B-	2g	.
=7	=7	=7	=7	=7
2G]	0r	1A	1a	1dd]
2F	.	.	.	.
1B-	.	2r	4d	1dd
.	.	.	4e	.
.	.	2d	4f	.
.	.	.	4g	.
=8	=8	=8	=8	=8
2.A	0r	2e	1a	1.cc
.	.	1f	.	.
4B-	.	.	.	.
1c	.	.	[1g	.
.	.	2e	.	2g
=9	=9	=9	=9	=9
2B-	1r	2d	2g]	2b-
2A	.	1c	4f	2cc
.	.	.	4e	.
1G	[1d	.	1g	[1dd
.	.	2B-	.	.
=10	=10	=10	=10	=10
0D	1d]	2A	2f	1dd]
.	.	2.a	4d	.
.	.	.	4e	.
.	1d	.	4f	2r
.	.	4g	4g	.
.	.	[2f	[2a	4a
.	.	.	.	4b
=11	=11	=11	=11	=11
0r	1.c	2f]	2a]	4cc
.	.	.	.	4dd
.	.	4e	4g	2.ee
.	.	4d	4f	.
.	.	2e	4g	.
.	.	.	4a	4ff
.	2G	[2d	[2b-	2gg
=12	=12	=12	=12	=12
0r	2B-	2d]	2b-]	2ff
.	2c	1g	2g	2ee-
.	2d	.	2b-	2.dd
.	[2d	2f#	2a	.
.	.	.	.	4cc
=13	=13	=13	=13	=13
0G	2d]	2g	[0g	2b-
.	1c	2e-	.	2cc
.	.	1d	.	[1dd
.	4B-	.	.	.
.	4A	.	.	.
=14	=14	=14	=14	=14
1G	2.B-	2r	1g]	1dd]
.	.	4d	.	.
.	4c	4e	.	.
[1F	4d	4f	1r	2.a
.	4e	4g	.	.
.	[2f	[2a	.	.
.	.	.	.	4b-
=15	=15	=15	=15	=15
2F]	4f]	4a]	0r	2cc
.	4g	4g	.	.
2D	1a	2.f	.	2dd
2F	.	.	.	2cc
.	.	4e	.	.
2G	4g	2d	.	2b-
.	4f	.	.	.
=16	=16	=16	=16	=16
0A	2e	2c#	2r	1a
.	2f	1d	2a	.
.	1e	.	2a	1r
.	.	2c#	2a	.
=17	=17	=17	=17	=17
1G	1g	1d	2b-	2r
.	.	.	2g	2dd
2D	2f#	1r	2a	2dd
2G	2g	.	2b	2dd
=18	=18	=18	=18	=18
1C	4e	1G	2.cc	2ee
.	4f	.	.	.
.	4g	.	.	2cc
.	4a	.	8b-	.
.	.	.	8a	.
1r	1g	2G	1b-	2dd
.	.	2G	.	2ee
=19	=19	=19	=19	=19
0r	2.c	1.A	2r	2ff
.	.	.	2a	4ee
.	4d	.	.	4dd
.	2e	.	2a	2cc
.	2f	2F	2a	[2dd
=20	=20	=20	=20	=20
1r	1e	2G	2b-	2dd]
.	.	2A	2a	2cc#
2r	[1d	2.B-	2f	2.dd
2G	.	.	[2b-	.
.	.	4c	.	4cc
=21	=21	=21	=21	=21
2G	1d]	2d	4b-]	1b-
.	.	.	4a	.
2G	.	2B-	4g	.
.	.	.	4f	.
2A	1r	2c	2e	2.a
2F	.	[2d	2f	.
.	.	.	.	8g
.	.	.	.	8a
=22	=22	=22	=22	=22
2G	1r	2d]	1e	2b-
2A	.	2c#	.	4a
.	.	.	.	4g
2.B-	2r	1d	1d	2.f
.	2d	.	.	.
8A	.	.	.	4g
8G	.	.	.	.
=23	=23	=23	=23	=23
2F	2d	0r	2r	2a
2G	2d	.	2g	2b
1c	2e	.	2g	1cc
.	2c	.	2a	.
=24	=24	=24	=24	=24
2G	2d	0r	2b-	2r
2c	2e	.	2g	2cc
1F	2.f	.	2.a	2cc
.	.	.	.	2dd
.	8e	.	4b	.
.	8d	.	.	.
=25	=25	=25	=25	=25
0r	2c	2r	2cc	2ee
.	2d	2d	1a	1ff
.	1B-	2d	.	.
.	.	2d	2g	4ee
.	.	.	.	4dd
=26	=26	=26	=26	=26
2r	[0A	2e	[0a	2cc
2A	.	2c	.	2ee
2D	.	2d	.	2ff
2C#	.	2e	.	[2ee
=27	=27	=27	=27	=27
1D	0A]	2.f	0a]	4ee]
.	.	.	.	4dd
.	.	.	.	1dd
.	.	8e	.	.
.	.	8d	.	.
1A	.	1e	.	.
.	.	.	.	2cc#
=28	=28	=28	=28	=28
0D	2r	1d	2r	2dd
.	1d	.	1f	1a
.	.	1r	.	.
.	2d	.	2f	2a
=29	=29	=29	=29	=29
0r	2d	0r	2f	2a
.	2d	.	2f	2b-
.	[1e-	.	[1g	2cc
.	.	.	.	[2b-
=30	=30	=30	=30	=30
1r	1e-]	1r	1g]	2b-]
.	.	.	.	4a
.	.	.	.	4g
[1D	[1d	2r	2.a	2.f
.	.	[2A	.	.
.	.	.	4g	4g
=31	=31	=31	=31	=31
2D]	0d]	2A]	2.f	2.a
2D	.	2A	.	.
.	.	.	4e	4g
2D	.	2A	4d	4f
.	.	.	4c	4e
2D	.	2B-	4B-	2d
.	.	.	4A	.
=32	=32	=32	=32	=32
0E-	1r	2c	2.G	0g
.	.	1B-	.	.
.	.	.	4A	.
.	2r	.	2B-	.
.	[2g	4A	2c	.
.	.	4G	.	.
=33	=33	=33	=33	=33
1D	2g]	1A	1d	1r
.	2f#	.	.	.
1r	1g	2G	2r	[1dd
.	.	[2g	[2b-	.
=34	=34	=34	=34	=34
0r	1d	2g]	2b-]	2dd]
.	.	2f#	2a	2dd
.	1r	2g	2b-	2dd
.	.	2f	2a	2dd
=35	=35	=35	=35	=35
0r	0r	2.e-	4g	0ee-
.	.	.	4a	.
.	.	.	1b-	.
.	.	4d	.	.
.	.	1c	.	.
.	.	.	2a	.
=36	=36	=36	=36	=36
1.G	1.d	1B-	1b-	2dd
.	.	.	.	1b-
.	.	2G	1r	.
2F#	2d	2A	.	2a
=37	=37	=37	=37	=37
2G	2d	2G	1r	2b-
2F	2d	2A	.	2a
[1E-	[1e-	1B-	2r	2.g
.	.	.	[2g	.
.	.	.	.	4a
=38	=38	=38	=38	=38
2E-]	1e-]	1G	2g]	4b-
.	.	.	.	4g
2C	.	.	2g	2.cc
1G	2d	2r	2g	.
.	.	.	.	4b-
.	[2g	[2d	2g	2b-
=39	=39	=39	=39	=39
1G	2g]	2d]	0b-	4g
.	.	.	.	4a
.	2g	2d	.	4b-
.	.	.	.	4cc
2.B-	1f	2d	.	4dd
.	.	.	.	4ee
.	.	2d	.	[2ff
4c	.	.	.	.
=40	=40	=40	=40	=40
2d	2d	1f	[0a	4ff]
.	.	.	.	4ee
2D	2.a	.	.	1dd
1A	.	1e	.	.
.	4g	.	.	.
.	2e	.	.	2cc#
=41	=41	=41	=41	=41
0D	0f#	0d	0a]	0dd
==	==	==	==	==
*-	*-	*-	*-	*-
!!!CDT: 1525/^1526/-1594/2/2
!!!OCY: Italia
!!!AGN: Mass (Parody)
!!!AST: renaissance, vocal
!!!ASW: Motet 1532 (Lhéritier)
!!!PWK: Masses, Book 5
!!!RNB: Cadence finals: G,A
!!!YOR: Le Opere Complete, v. 15, p. 89
!!!YOO: Rome, Italy: Fratelli Scalera
!!!END: 1992//
!!!EED: John Miller
!!!YEC: Copyright 2000, John Miller
!!!YEN: United States of America
!!!YEM: Rights to all derivative electronic formats reserved.
!!!YEM: Refer to licensing agreement for further details.
!!!YEM: This file must be accompanied by the licensing agreement.
!!!YEM: A copy of the licensing agreement may be found at http://www.music-cog.ohio-state.edu/HumdrumDatabases/Palestrina/license.txt
!!!EMD: converted to Humdrum by Bret Aarden
